{ "compressionlevel":-1,
 "height":10,
 "infinite":false,
 "layers":[
        {
         "data":[34, 33, 31, 39, 30, 31, 25, 39, 62, 64,
            31, 37, 26, 38, 30, 26, 36, 31, 31, 24,
            37, 36, 40, 35, 31, 35, 26, 7, 2, 16,
            33, 29, 28, 38, 32, 34, 16, 33, 5, 89,
            37, 28, 26, 29, 34, 1, 17, 38, 69, 2147483737,
            37, 34, 27, 27, 30, 3, 32, 8, 69, 76,
            35, 34, 37, 31, 31, 12, 40, 11, 90, 96,
            28, 23, 33, 9, 2, 38, 70, 89, 78, 106,
            34, 26, 3, 40, 26, 4, 90, 102, 106, 92,
            37, 24, 29, 30, 26, 90, 73, 106, 106, 106],
         "height":10,
         "id":7,
         "name":"Chao",
         "opacity":1,
         "type":"tilelayer",
         "visible":true,
         "width":10,
         "x":0,
         "y":0
        }, 
        {
         "data":[0, 0, 48, 0, 47, 0, 0, 53, 45, 0,
            0, 45, 0, 0, 0, 0, 0, 0, 0, 0,
            0, 50, 44, 0, 0, 0, 0, 66, 0, 0,
            0, 0, 48, 0, 0, 51, 0, 0, 0, 0,
            47, 0, 0, 0, 0, 47, 0, 0, 0, 0,
            0, 0, 0, 0, 0, 0, 0, 0, 0, 0,
            54, 0, 0, 43, 0, 63, 0, 0, 0, 83,
            0, 0, 0, 0, 0, 0, 0, 0, 0, 84,
            0, 0, 0, 52, 0, 0, 84, 85, 0, 0,
            0, 68, 0, 0, 0, 0, 0, 0, 85, 85],
         "height":10,
         "id":8,
         "name":"Overlay",
         "opacity":1,
         "type":"tilelayer",
         "visible":true,
         "width":10,
         "x":0,
         "y":0
        }],
 "nextlayerid":9,
 "nextobjectid":1,
 "orientation":"isometric",
 "renderorder":"right-down",
 "tiledversion":"1.11.2",
 "tileheight":16,
 "tilesets":[
        {
         "columns":11,
         "firstgid":1,
         "image":"..\/..\/..\/..\/isometric tileset\/spritesheet.png",
         "imageheight":352,
         "imagewidth":352,
         "margin":0,
         "name":"tileset",
         "spacing":0,
         "tilecount":121,
         "tileheight":32,
         "tilewidth":32
        }],
 "tilewidth":32,
 "type":"map",
 "version":"1.10",
 "width":10
}